src/md-sunny.svg

<svg xmlns="http://www.w3.org/2000/svg" viewBox="0 0 512 512" xml:space="preserve"><path d="M277.3 32h-42.7v64h42.7V32zm129.1 43.7L368 114.1l29.9 29.9 38.4-38.4-29.9-29.9zm-300.8 0-29.9 29.9 38.4 38.4 29.9-29.9-38.4-38.4zM256 128c-70.4 0-128 57.6-128 128s57.6 128 128 128 128-57.6 128-128-57.6-128-128-128zm224 106.7h-64v42.7h64v-42.7zm-384 0H32v42.7h64v-42.7zM397.9 368 368 397.9l38.4 38.4 29.9-29.9-38.4-38.4zm-283.8 0-38.4 38.4 29.9 29.9 38.4-38.4-29.9-29.9zm163.2 48h-42.7v64h42.7v-64z"/></svg>

<?xml version="1.0" encoding="utf-8"?>
<!-- Generator: Adobe Illustrator 18.1.1, SVG Export Plug-In . SVG Version: 6.00 Build 0)  -->
<svg version="1.1" id="Layer_1" xmlns="http://www.w3.org/2000/svg" xmlns:xlink="http://www.w3.org/1999/xlink" x="0px" y="0px"
	 viewBox="0 0 512 512" enable-background="new 0 0 512 512" xml:space="preserve">
<g id="Icon_27_">
	<g>
		<path d="M277.3,32h-42.7v64h42.7V32L277.3,32z M406.4,75.7L368,114.1l29.9,29.9l38.4-38.4L406.4,75.7L406.4,75.7z M105.6,75.7
			l-29.9,29.9l38.4,38.4l29.9-29.9L105.6,75.7L105.6,75.7z M256,128c-70.4,0-128,57.6-128,128s57.6,128,128,128s128-57.6,128-128
			S326.4,128,256,128L256,128z M480,234.7h-64v42.7h64V234.7L480,234.7z M96,234.7H32v42.7h64V234.7L96,234.7z M397.9,368L368,397.9
			l38.4,38.4l29.9-29.9L397.9,368L397.9,368z M114.1,368l-38.4,38.4l29.9,29.9l38.4-38.4L114.1,368L114.1,368z M277.3,416h-42.7v64
			c6.4,0,42.7,0,42.7,0V416L277.3,416z"/>
	</g>
</g>
</svg>
